public/images/frog/frog-character-ex.svg

<svg width="77" height="108" viewBox="0 0 77 108" fill="none" xmlns="http://www.w3.org/2000/svg">
<g id="Group 1234">
<g id="&#235;&#160;&#136;&#236;&#157;&#180;&#236;&#150;&#180; 1">
<path id="Vector" d="M46.9452 101.803C46.0631 101.734 45.1894 101.656 44.3116 101.583C43.5219 101.517 42.7364 101.444 41.9467 101.403C39.8171 101.293 37.6833 101.342 35.5537 101.419C34.2894 101.464 33.0209 101.517 31.7356 101.791C31.2147 100.913 30.8283 99.9984 30.4376 99.0838C29.4085 96.6746 28.8331 94.143 28.4341 91.5786C28.182 89.9576 28.0854 88.3202 28.0392 86.6787C27.909 82.0278 28.6441 77.4994 30.0092 73.0567C30.4292 71.6929 31.0887 70.4189 31.7692 69.1164C31.7944 69.0796 31.7902 69.0755 31.7944 69.0755C31.9288 68.9489 32.0002 68.7856 32.0926 68.5978C32.1178 68.5733 32.1136 68.5651 32.1178 68.5651C32.1934 68.4875 32.2396 68.3977 32.3068 68.2874C32.3278 68.267 32.3278 68.2589 32.332 68.2589C32.4034 68.1894 32.4496 68.1037 32.521 67.9934C32.5462 67.9689 32.5462 67.9526 32.5546 67.9526C32.5714 67.9322 32.584 67.9118 32.6218 67.8709C32.6471 67.8505 32.6471 67.8424 32.6471 67.8424C32.7227 67.777 32.7647 67.6954 32.8403 67.5892C32.8697 67.5647 32.8697 67.5443 32.8781 67.5402C32.8949 67.5157 32.9033 67.4953 32.9369 67.4626C32.9663 67.4463 32.9621 67.434 32.9705 67.434C32.9915 67.4136 32.9999 67.3973 33.0419 67.3564C33.0671 67.336 33.0671 67.3279 33.0713 67.3279C33.0923 67.3115 33.1049 67.2911 33.1469 67.2503C33.1721 67.2258 33.1721 67.2217 33.1721 67.2217C33.2771 67.1278 33.3737 67.0257 33.4745 66.8828C33.5039 66.8624 33.5207 66.8297 33.5585 66.8011C33.5963 66.7725 33.6173 66.7317 33.6593 66.7031C33.7014 66.6704 33.7224 66.6296 33.7644 66.601C33.8064 66.5724 33.8316 66.5275 33.8694 66.5071C33.9576 66.4336 34.008 66.3805 34.0962 66.3152C34.2012 66.2213 34.3188 66.209 34.4154 66.1151C34.4364 66.0947 34.4364 66.0906 34.4406 66.0906C34.4616 66.0743 34.4784 66.058 34.5204 66.013C34.5456 65.9885 34.5456 65.9845 34.5456 65.9845C34.5624 65.9681 34.5834 65.9518 34.6254 65.911C34.6506 65.8865 34.6506 65.8824 34.6506 65.8824C34.6674 65.866 34.6842 65.8497 34.7305 65.813C34.7599 65.7925 34.7599 65.7844 34.7683 65.7844C34.7851 65.768 34.7935 65.7476 34.8397 65.7231C35.7259 65.0943 36.7424 64.9677 37.7547 64.8289C39.0527 64.6533 40.3506 64.6329 41.6401 64.8942C43.5555 65.2821 44.8576 66.5071 45.9875 67.9485C46.521 68.6304 46.962 69.3695 47.361 70.178C47.3862 70.227 47.403 70.2393 47.424 70.2801C47.4409 70.325 47.4493 70.3454 47.4703 70.3903C47.4955 70.4312 47.5081 70.4434 47.5291 70.4843C47.5417 70.5292 47.5543 70.5496 47.5753 70.5986C47.6005 70.6394 47.6173 70.6517 47.6341 70.6884C47.6467 70.7374 47.6551 70.7578 47.6761 70.8109C47.7055 70.8518 47.7223 70.8599 47.7307 70.8967C47.7349 70.9457 47.7475 70.9661 47.7727 71.0273C47.8231 71.0886 47.8441 71.1213 47.8567 71.1988C47.8735 71.2519 47.8819 71.2683 47.8987 71.3173C47.9239 71.3581 47.9365 71.3703 47.9533 71.4112C47.9659 71.4602 47.9743 71.4806 47.9911 71.5378C48.0373 71.599 48.0583 71.6358 48.0667 71.7133C48.0835 71.7664 48.0919 71.7828 48.1087 71.8358C48.1339 71.8767 48.1465 71.8889 48.1591 71.9298C48.1675 71.9788 48.1801 72.0033 48.1969 72.0563C48.2431 72.1176 48.2683 72.1503 48.2725 72.2278C48.2851 72.2809 48.2935 72.3013 48.3103 72.3544C48.3523 72.4197 48.3733 72.4565 48.3817 72.5341C48.3943 72.5872 48.4027 72.6076 48.4195 72.6607C48.4616 72.726 48.4784 72.7668 48.491 72.8444C48.5078 72.8975 48.512 72.9179 48.5288 72.971C48.5708 73.0363 48.5876 73.0731 48.596 73.1548C48.6086 73.2078 48.617 73.2282 48.6338 73.2854C48.7514 73.7019 48.8606 74.0857 48.995 74.5022C49.0244 74.5798 49.037 74.6247 49.0538 74.7064C49.1924 75.4087 49.3772 76.0662 49.5327 76.7644C49.5579 76.842 49.5705 76.891 49.5831 76.9686C49.7469 77.8301 49.9275 78.655 50.0787 79.5247C50.0955 79.6105 50.1039 79.6595 50.1123 79.7452C50.1081 79.933 50.1501 80.076 50.1837 80.2556C50.2005 80.3332 50.2047 80.3822 50.2131 80.468C50.2677 81.056 50.3307 81.6113 50.3979 82.2034C50.4147 82.3218 50.4231 82.4034 50.4273 82.5259C50.4189 83.0159 50.5071 83.4651 50.5029 83.9551C50.5197 84.1389 50.5281 84.2899 50.5281 84.4819C50.5533 85.2781 50.5365 86.0335 50.5323 86.8298C50.5281 87.0217 50.5239 87.1687 50.5197 87.3606C50.4819 87.8873 50.4273 88.3692 50.4273 88.8918C50.4231 88.9817 50.4231 89.0307 50.4147 89.1164C50.3769 89.4349 50.3223 89.7126 50.3223 90.027C50.3181 90.1127 50.3139 90.1617 50.3055 90.2475C50.1921 90.7293 50.1921 91.1866 50.1081 91.6726C50.0997 91.7583 50.0955 91.8073 50.0871 91.8931C49.9779 92.2401 49.9863 92.5668 49.9023 92.9139C49.8939 92.9956 49.8897 93.0446 49.8771 93.1262C49.7469 93.5754 49.6923 94.0001 49.5831 94.4533C49.5705 94.535 49.5663 94.5799 49.5495 94.6575C49.4276 95.0045 49.3604 95.3312 49.268 95.6865C49.2554 95.7681 49.2512 95.813 49.2302 95.8906C49.058 96.4174 48.89 96.9074 48.7388 97.4341C48.7262 97.5158 48.7136 97.5648 48.6842 97.6464C48.6758 97.6995 48.68 97.7159 48.659 97.7485C48.6296 97.7853 48.6254 97.8016 48.6086 97.8547C48.4321 98.1854 48.3397 98.508 48.2305 98.8633C48.2011 98.9123 48.1969 98.9327 48.1759 98.9817C48.1003 99.1205 48.0499 99.2348 48.0163 99.3818C47.9869 99.4268 47.9785 99.4472 47.9575 99.5003C47.9407 99.5493 47.9407 99.5697 47.9155 99.6024C47.8861 99.6391 47.8819 99.6595 47.8609 99.7044C47.7433 99.9045 47.6383 100.076 47.5879 100.305C47.5585 100.35 47.5501 100.374 47.5249 100.427C47.5081 100.476 47.5081 100.497 47.4871 100.529C47.4535 100.566 47.4493 100.586 47.424 100.635C47.4072 100.684 47.4073 100.701 47.382 100.738C47.3526 100.774 47.3484 100.795 47.3274 100.84C47.2476 100.974 47.1972 101.089 47.1636 101.24C47.1384 101.285 47.13 101.305 47.1132 101.354C47.0334 101.493 46.983 101.607 46.9536 101.758C46.9536 101.783 46.9494 101.799 46.9452 101.803Z" fill="#DBFF9E"/>
<g id="Group">
<path id="Vector_2" d="M19.2774 61.6972C-1.81908 52.9091 -6.44623 32.117 13.4863 18.7303C14.8152 17.6615 16.7815 17.208 17.7202 15.7618C19.7722 11.3218 21.8558 6.70417 25.3729 3.21557C30.1777 -1.87778 37.583 -0.992946 38.4837 6.64708C39.8792 -1.76678 47.478 -1.66846 52.4381 4.00526C54.1888 5.95571 55.5398 8.20427 56.745 10.5194C58.1277 12.5079 58.4671 15.3718 60.4365 16.8496C81.8343 28.6157 81.625 50.5019 59.3487 61.0312C59.114 61.1326 58.873 61.3007 59.1711 61.51C61.6195 63.7523 63.7602 66.3148 65.3142 69.2547C66.8175 72.0488 67.8831 75.0902 68.3049 78.2426C68.3303 78.7501 68.5428 79.0735 69.0343 79.2607C69.0565 79.3082 69.1517 79.3082 69.1897 79.3431C69.2436 79.4065 69.3705 79.4256 69.4339 79.4985C69.6623 79.6508 69.9414 79.7681 70.1507 79.9806C70.2331 80.063 70.3917 80.117 70.471 80.2216C70.6169 80.3453 70.8167 80.469 70.9531 80.6212C70.9594 80.6434 71.0197 80.6846 71.0387 80.6973C71.3876 80.9732 71.7269 81.2777 71.9965 81.6614C77.3245 87.4906 75.5929 96.4372 68.9424 99.7895C72.0916 101.049 71.5461 103.703 68.2098 103.966C65.6123 104.318 63.0022 104.058 60.4112 103.801C60.1828 103.782 60.1035 103.827 60.1321 104.08C59.4185 111.581 47.7285 106.738 45.2389 102.603C44.6617 101.864 45.0074 101.023 45.3912 100.262C45.74 99.4818 46.1206 98.7175 46.3806 97.9025C48.4928 91.7816 48.3787 85.02 46.5741 78.8325C45.4356 74.3449 42.0167 70.5772 37.0661 72.3279C32.6736 74.4464 31.8903 80.2502 31.2116 84.5887C30.7295 89.0224 31.072 93.6147 32.5468 97.8485C32.8163 98.7683 33.2984 99.6024 33.6314 100.497C34.2467 101.416 34.0564 102.342 33.3618 103.069C30.6249 106.909 19.4265 111.403 18.8112 104.061C18.8398 103.83 18.7605 103.782 18.5512 103.801C15.6746 104.074 12.7537 104.42 9.89309 103.801C6.62015 102.856 7.70162 100.877 10.1309 99.6372C3.0269 96.8654 1.88517 86.8848 6.94681 81.6583C7.21638 81.3063 7.53353 80.9669 7.90459 80.6942C7.92996 80.6942 7.97436 80.6339 7.98705 80.6212C8.12976 80.4912 8.29785 80.3358 8.46911 80.2216C8.55474 80.1392 8.67208 80.0504 8.78942 79.9806C8.99874 79.7966 9.24928 79.6381 9.50617 79.4985C9.56643 79.4446 9.67743 79.4002 9.75037 79.3431C9.78209 79.3146 9.86772 79.2955 9.90895 79.2575C10.0548 79.1338 10.299 79.0513 10.4735 78.9435C10.854 77.2944 11.1395 75.4771 11.6723 73.828C11.7357 73.7836 11.6913 73.6377 11.7516 73.5869C11.815 73.5425 11.7706 73.3966 11.834 73.3491C11.8974 73.3047 11.853 73.1556 11.9165 73.1112C12.0719 72.9495 12.0624 72.6672 12.1543 72.4706C12.2685 72.385 12.24 72.1788 12.3129 72.071C12.4303 71.9885 12.3954 71.7792 12.4747 71.6714C12.6205 71.5477 12.6142 71.2654 12.7157 71.1132C12.833 70.9071 12.9567 70.7136 13.0297 70.4694C13.0709 70.444 13.0772 70.3457 13.1089 70.3077C13.166 70.2284 13.2073 70.0666 13.2675 69.9873C13.3119 69.9651 13.3151 69.8668 13.3468 69.8288C13.388 69.8034 13.3944 69.7082 13.4261 69.6702C13.4673 69.6448 13.4737 69.5528 13.5054 69.5116C13.6322 69.4038 13.6766 69.185 13.7496 69.0359C13.7845 69.0074 13.7908 68.8964 13.832 68.8773C13.8415 68.8583 13.8859 68.8076 13.9018 68.7885C13.9969 68.7378 13.9938 68.5538 14.0667 68.4746C14.0794 68.4619 14.127 68.3984 14.1397 68.3858C14.1872 68.3667 14.1904 68.2716 14.2253 68.2303C14.2982 68.1828 14.3426 68.0749 14.3807 67.9861C14.4283 67.9671 14.4314 67.8751 14.4663 67.8307C14.5012 67.8054 14.5139 67.6975 14.552 67.6753C14.5646 67.6595 14.609 67.6087 14.6249 67.5865C14.7359 67.4977 14.7549 67.2979 14.8691 67.1901C14.8881 67.1806 14.9262 67.1203 14.942 67.1045C14.9896 67.0823 14.9896 66.9967 15.0277 66.9491C15.0974 66.8952 15.1133 66.7715 15.1894 66.7081C15.2053 66.6985 15.2528 66.6351 15.2624 66.6193C15.3448 66.5844 15.3543 66.4417 15.4241 66.3846C15.4622 66.3592 15.4748 66.2514 15.5129 66.2323C16.6102 64.7449 17.8217 63.359 19.1664 62.0904C19.2679 61.9953 19.4645 61.9033 19.2711 61.694L19.2774 61.6972Z" fill="#00CE4C"/>
<path id="Vector_3" d="M32.4713 5.32161C36.6925 8.00466 30.8221 14.5157 28.4372 9.47939C27.4445 7.12617 30.0261 4.05303 32.4713 5.32161Z" fill="#0E0E0E"/>
<path id="Vector_4" d="M44.4393 10.1483C42.3937 8.4389 43.7162 4.0623 46.5927 4.7505C51.3848 6.06983 48.7461 12.9329 44.4393 10.1483Z" fill="#0E0E0E"/>
<path id="Vector_5" d="M42.6917 19.4219C43.6241 19.3712 44.287 18.8288 45.0576 18.4292C46.2311 18.2834 45.0291 19.6661 44.5121 19.8152C42.8693 20.7603 40.9664 20.4526 39.3427 19.6629C37.7157 19.8722 36.1902 21.0584 34.3254 20.719C33.355 20.7729 30.526 19.4187 31.7851 18.3404C32.08 18.2516 32.245 18.4197 32.3845 18.6671C33.6563 20.4495 36.4091 19.7803 38.1121 19.0762C39.6693 18.2992 41.0204 19.8056 42.6949 19.4219H42.6917Z" fill="#0E0E0E"/>
<path id="Vector_6" d="M31.345 7.87778C30.5553 6.56479 32.6167 5.48016 33.1654 6.93268C33.7363 8.16955 32.2393 8.92118 31.345 7.87778Z" fill="white"/>
<path id="Vector_7" d="M48.1788 6.7324C48.331 8.76213 45.4799 7.96292 46.3013 6.32328C46.7358 5.41307 48.0297 5.83171 48.1788 6.7324Z" fill="white"/>
</g>
<path id="Vector 12" d="M38.9204 63.4287H26.4385C36.424 69.1725 46.6678 65.822 50.5415 63.4287H38.9204Z" fill="#00C62E"/>
</g>
</g>
</svg>

<svg width="77" height="108" fill="none" xmlns="http://www.w3.org/2000/svg"><path d="M46.945 101.804c-.882-.07-1.755-.147-2.633-.221-.79-.065-1.575-.139-2.365-.18-2.13-.11-4.263-.061-6.393.017-1.264.045-2.533.098-3.818.371-.521-.878-.908-1.792-1.298-2.707-1.03-2.409-1.605-4.94-2.004-7.505-.252-1.621-.348-3.258-.395-4.9-.13-4.65.605-9.18 1.97-13.622.42-1.364 1.08-2.638 1.76-3.94.026-.037.021-.041.026-.041.134-.127.205-.29.298-.478.025-.024.02-.032.025-.032.076-.078.122-.168.19-.278.02-.02.02-.029.024-.029.072-.07.118-.155.19-.265.025-.025.025-.041.033-.041.017-.02.03-.04.067-.082.025-.02.025-.028.025-.028.076-.066.118-.147.194-.253.029-.025.029-.045.037-.05.017-.024.026-.044.06-.077.029-.016.024-.029.033-.029.02-.02.03-.036.071-.077.025-.02.025-.029.03-.029.02-.016.033-.037.075-.077.025-.025.025-.029.025-.029a1.92 1.92 0 0 0 .303-.339c.03-.02.046-.053.084-.081.038-.03.059-.07.1-.099.043-.032.064-.073.106-.102.042-.028.067-.073.105-.094.088-.073.138-.126.226-.191.105-.094.223-.107.32-.2.02-.02.02-.025.025-.025a.666.666 0 0 0 .08-.078c.025-.024.025-.028.025-.028.017-.016.038-.033.08-.074.025-.024.025-.028.025-.028a.88.88 0 0 1 .08-.07c.03-.02.03-.028.038-.028.016-.017.025-.037.07-.061.887-.63 1.904-.756 2.916-.895 1.298-.175 2.596-.196 3.885.066 1.916.388 3.218 1.612 4.348 3.054.533.682.974 1.42 1.373 2.23.026.048.042.06.063.102.017.044.026.065.047.11.025.04.037.053.058.094.013.045.025.065.046.114.026.04.042.053.06.09.012.049.02.07.041.122.03.041.046.05.055.086.004.05.017.07.042.13.05.062.071.095.084.172.017.053.025.07.042.119.025.04.038.053.054.094.013.049.021.069.038.126a.304.304 0 0 1 .076.176c.017.053.025.07.042.122.025.041.038.053.05.094.009.05.021.074.038.127.046.061.072.094.076.171.012.053.02.074.038.127a.355.355 0 0 1 .071.18c.013.053.021.073.038.126a.412.412 0 0 1 .071.184l.038.126a.35.35 0 0 1 .067.184c.013.053.021.074.038.13.118.417.227.801.361 1.218.03.077.042.122.06.204.138.702.322 1.36.478 2.058.025.077.038.126.05.204.164.862.345 1.686.496 2.556.017.086.025.135.034.22-.005.188.037.331.071.511.017.078.021.127.03.212.054.588.117 1.144.184 1.736.017.118.025.2.03.322-.009.49.08.94.075 1.43a5.4 5.4 0 0 1 .025.526c.026.796.009 1.552.005 2.348l-.013.531c-.038.527-.092 1.009-.092 1.531-.005.09-.005.14-.013.225-.038.318-.092.596-.092.91a3.9 3.9 0 0 1-.017.22c-.114.483-.114.94-.198 1.426l-.02.22c-.11.347-.102.674-.185 1.021-.009.082-.013.131-.026.213-.13.449-.184.874-.294 1.327-.012.081-.017.126-.033.204-.122.347-.19.674-.282 1.029-.012.082-.017.126-.038.204-.172.527-.34 1.017-.491 1.543a.986.986 0 0 1-.055.213c-.008.053-.004.07-.025.102-.03.037-.033.053-.05.106-.177.33-.269.653-.378 1.009-.03.049-.034.07-.055.118a1.479 1.479 0 0 0-.16.4.522.522 0 0 0-.058.119c-.017.049-.017.07-.042.102-.03.037-.034.057-.055.102-.117.2-.222.371-.273.6-.03.045-.038.069-.063.123-.017.049-.017.069-.038.102-.033.036-.038.057-.063.106-.017.049-.017.065-.042.102-.03.037-.033.057-.054.102-.08.135-.13.249-.164.4a.559.559 0 0 0-.05.114c-.08.139-.13.254-.16.405 0 .024-.004.041-.009.045Z" fill="#DBFF9E"/><path d="M19.277 61.697c-21.096-8.788-25.723-29.58-5.79-42.967 1.328-1.069 3.295-1.522 4.233-2.968 2.052-4.44 4.136-9.058 7.653-12.546 4.805-5.094 12.21-4.209 13.11 3.431 1.396-8.414 8.995-8.315 13.955-2.642 1.75 1.95 3.102 4.2 4.307 6.514 1.383 1.989 1.722 4.853 3.692 6.33 21.397 11.767 21.188 33.653-1.088 44.182-.235.102-.476.27-.178.479 2.449 2.242 4.59 4.805 6.143 7.745 1.504 2.794 2.57 5.835 2.99 8.988.026.507.239.83.73 1.018.022.047.118.047.156.082.054.063.18.083.244.156.228.152.507.27.717.482.082.082.24.136.32.24.146.124.346.248.482.4.006.022.067.064.086.076.349.276.688.58.957.964 5.329 5.83 3.597 14.776-3.054 18.129 3.15 1.259 2.604 3.913-.732 4.176-2.598.352-5.208.092-7.799-.165-.228-.019-.308.026-.279.279-.713 7.501-12.404 2.658-14.893-1.477-.577-.739-.232-1.58.152-2.341.349-.78.73-1.544.99-2.36 2.112-6.12 1.998-12.882.193-19.07-1.138-4.487-4.557-8.255-9.508-6.504-4.392 2.118-5.176 7.922-5.854 12.26-.482 4.434-.14 9.027 1.335 13.26.27.92.751 1.754 1.084 2.649.616.919.425 1.845-.27 2.572-2.736 3.84-13.934 8.334-14.55.992.029-.231-.05-.279-.26-.26-2.876.273-5.797.619-8.658 0-3.273-.945-2.191-2.924.238-4.164-7.104-2.772-8.246-12.752-3.184-17.979.27-.352.587-.691.958-.964.025 0 .07-.06.082-.073.143-.13.31-.285.482-.4.086-.082.203-.17.32-.24.21-.184.46-.343.717-.482.06-.054.171-.099.244-.156.032-.028.118-.047.159-.086.146-.123.39-.206.564-.314.381-1.649.666-3.466 1.2-5.115.063-.044.018-.19.079-.241.063-.044.019-.19.082-.238.063-.044.019-.193.082-.238.156-.162.146-.444.238-.64.114-.086.086-.292.159-.4.117-.082.082-.292.162-.4.146-.123.14-.406.24-.558.118-.206.242-.4.315-.644.04-.025.047-.123.079-.161.057-.08.098-.241.159-.32.044-.023.047-.121.079-.16.041-.025.047-.12.08-.158.04-.025.047-.117.078-.158.127-.108.172-.327.245-.476.034-.029.04-.14.082-.159.01-.019.054-.07.07-.088.095-.051.092-.235.165-.314.012-.013.06-.077.073-.09.047-.018.05-.113.085-.155.073-.047.118-.155.156-.244.047-.019.05-.11.085-.155.035-.026.048-.133.086-.156.013-.016.057-.066.073-.088.11-.09.13-.29.244-.397.02-.01.057-.07.073-.085.048-.023.048-.108.086-.156.07-.054.085-.177.161-.24a.502.502 0 0 0 .073-.09c.083-.035.092-.177.162-.234.038-.026.05-.134.089-.153a30.848 30.848 0 0 1 3.653-4.142c.102-.095.299-.187.105-.396l.006.003Z" fill="#00CE4C"/><path d="M33.026 4.52c2.07 1.11 2.69 3.133 1.607 5.006-.703 1.216-2.058 1.92-3.42 1.778-1.279-.138-2.318-1.104-2.708-2.474-.757-2.68 2.294-5.238 4.521-4.31ZM45.069 4.488c2.31.21 3.74 1.755 3.6 3.794a3.152 3.152 0 0 1-2.245 2.818c-1.19.35-2.527-.114-3.47-1.172-1.836-2.07-.256-5.433 2.115-5.44Z" fill="#0E0E0E"/><path d="M32.232 7.879c-.648-.233-.887-.641-.709-1.258.122-.404.424-.669.862-.78.553-.14.989-.013 1.316.347.228.255.32.565.12.914-.331.57-.89.745-1.582.771l-.007.006ZM45.596 7.684c-.583-.454-.717-.947-.387-1.512.22-.368.586-.535 1.047-.5.582.043.982.319 1.215.794.163.334.176.68-.11.966-.469.466-1.066.455-1.756.25l-.009.002Z" fill="#fff"/><path d="M42.692 19.422c.932-.051 1.595-.593 2.366-.993 1.173-.146-.029 1.237-.546 1.386-1.643.945-3.546.637-5.17-.152-1.626.21-3.152 1.395-5.017 1.056-.97.054-3.799-1.3-2.54-2.379.295-.088.46.08.6.327 1.271 1.782 4.024 1.113 5.727.41 1.557-.778 2.908.728 4.583.345h-.003Z" fill="#0E0E0E"/><path d="M38.92 63.429H26.438c9.986 5.744 20.23 2.393 24.103 0h-11.62Z" fill="#00C62E"/></svg>
